X:5
T:GB/7c/5 Fair Maid Walking Down in the Garden, A-0
%%VWML:GB-7c-5-0
F:http://www.vwml.org/record/GB/7c/5
T:Version 2 of 3
C:Mr. Nappin (c. 50), Stanton St. John, Oxon., V. 07
C:Transcribed by Simon Furey and Lewis Jones
L:1/4
Q:1/4=112
M:3/2
I:linebreak $
K:Bb
F | D F e2 d c | d B G F z B | B A G F E D | C D/E/ F3 F |$ D F e2 d c | d B G F z E | D F e c d B | F/A/ c B3 |]

